X:615
T:Shaw's Reel
M:2/4
L:1/16
Z:abc by Bruce Osborne - bosborne@kos.net
K:G
DC|B,DGA BGDB,|CEAB c2DC|B,DGA BGcB|AGFE D2DC|!
B,DGA BGDB,|CEGB c2DC|B,GFG ECA,B,|G,B,DG G,2:|!
|:ga|bgfg egfg|dgBg dgBg|bafg dgfg|eaag a2ga|!
bgfg egfg|dgBg dBGB|ceAc BdGB|AGFA G2:|!
